X:65
T:siul a reel
R:reel
C:Urs Bgli
M:4/4
L:1/8
Q:1/2=120
K:D
|: "A"A2GE "D"FEDD | "F#m"FABc "D"d2A2 | "A"A2GE "D"FEDD | "D"F2EE "A"EDEF    |
|  "A"A2GE "D"FEDD | "F#m"FABc "D"d2A2 | "D"d2AB "G"BAG2 | "D"AGFE "D"DDDF  :|
|: "D"d2ef  "D"fedd  | "Em"gfee "D"fedd    | "Em"gfee  "D"fedd   | "Bm"Bcde "F#m"ABAc     |
|  "D"d2ef  "D"fedd  | "Em"gfee "D"fedd    | "Bm"Bcde  "G"ABGG|  "D"AGFE "D"DDDF  :|
